X:8
T:Foule immense, nous marchons - A198
C:Claude Tassin
M:4/4
L:1/4
K:C
"Do"EE "Fa"FF|"Sol"DD/E/- "Do"E2|"Do"CG "Fa"GF|"Sol"CD/E/- ED|"Do"EE "Fa"FF|"Sol"DD/E/- "Do"E2|"Do"(3CGG "Sol"(3GFE|"Do"C4||
"Do"GG "Fa"AA|"Sol"BB/c/- "Do"cG|"Do"EC "Fa"(3DEF|"Sol"G4|"Do"GG "Fa"AA|"Sol"BB/c/- "Do"cG|"Do"EC "Fam"DG/F/-|"Do4/3"F2E2||
